X: 14716
T: Gan Ainm
R: reel
M: 4/4
K: Gmajor
|:D|G2 BG E2 AG|FDEF GFED|G2 BG E2 AG|FDEF G2 z:|
e|gfgd BcdB|cBcd edef|gfgd Bcdf|ecAF G2 e2|
gfgd BcdB|cBcd edef|gfgd Bcdf|ecAF GFED||

